src/assets/from1to2.svg

<svg width="253" height="820" fill="none" xmlns="http://www.w3.org/2000/svg"><circle cx="125" cy="125" r="125" fill="#2E2E2E"/><circle cx="128" cy="695" r="125" fill="#2E2E2E"/><path stroke="#2E2E2E" stroke-width="20" d="M127 265v291"/><path d="M139.818 77.91V171h-25.273v-69.818H114l-20.364 12.182V91.909l22.909-14h23.273zM94.182 743v-18.182l34.727-28.727c2.303-1.909 4.273-3.697 5.909-5.364 1.667-1.697 2.94-3.439 3.818-5.227.909-1.788 1.364-3.773 1.364-5.955 0-2.393-.515-4.439-1.545-6.136-1-1.697-2.394-3-4.182-3.909-1.788-.939-3.849-1.409-6.182-1.409s-4.394.47-6.182 1.409c-1.757.939-3.121 2.318-4.091 4.136-.97 1.819-1.454 4.031-1.454 6.637h-24c0-6.546 1.47-12.182 4.409-16.909 2.94-4.728 7.091-8.364 12.454-10.909 5.364-2.546 11.652-3.819 18.864-3.819 7.454 0 13.909 1.197 19.364 3.591 5.484 2.364 9.712 5.697 12.681 10 3 4.303 4.5 9.349 4.5 15.137 0 3.575-.742 7.136-2.227 10.681-1.485 3.516-4.151 7.41-8 11.682C150.561 704 145.091 709.091 138 715l-8.727 7.273v.545h36.363V743H94.182z" fill="#fff"/></svg>

<svg width="253" height="820" viewBox="0 0 253 820" fill="none" xmlns="http://www.w3.org/2000/svg">
<circle cx="125" cy="125" r="125" fill="#2E2E2E"/>
<circle cx="128" cy="695" r="125" fill="#2E2E2E"/>
<line x1="127" y1="265" x2="127" y2="556" stroke="#2E2E2E" stroke-width="20"/>
<path d="M139.818 77.9091V171H114.545V101.182H114L93.6364 113.364V91.9091L116.545 77.9091H139.818Z" fill="white"/>
<path d="M94.1818 743V724.818L128.909 696.091C131.212 694.182 133.182 692.394 134.818 690.727C136.485 689.03 137.758 687.288 138.636 685.5C139.545 683.712 140 681.727 140 679.545C140 677.152 139.485 675.106 138.455 673.409C137.455 671.712 136.061 670.409 134.273 669.5C132.485 668.561 130.424 668.091 128.091 668.091C125.758 668.091 123.697 668.561 121.909 669.5C120.152 670.439 118.788 671.818 117.818 673.636C116.848 675.455 116.364 677.667 116.364 680.273H92.3636C92.3636 673.727 93.8333 668.091 96.7727 663.364C99.7121 658.636 103.864 655 109.227 652.455C114.591 649.909 120.879 648.636 128.091 648.636C135.545 648.636 142 649.833 147.455 652.227C152.939 654.591 157.167 657.924 160.136 662.227C163.136 666.53 164.636 671.576 164.636 677.364C164.636 680.939 163.894 684.5 162.409 688.045C160.924 691.561 158.258 695.455 154.409 699.727C150.561 704 145.091 709.091 138 715L129.273 722.273V722.818H165.636V743H94.1818Z" fill="white"/>
</svg>
